svg/color/nkeon.svg

<svg width="40" height="40" viewBox="0 0 40 40" fill="none" xmlns="http://www.w3.org/2000/svg">
<g clip-path="url(#clip0_819_3619)">
<path d="M20 0C31.0457 0 40 8.9543 40 20C40 31.0457 31.0457 40 20 40C8.95431 40 7.90517e-06 31.0457 0 20C6.58765e-07 8.95431 8.95431 1.97595e-06 20 0Z" fill="#CFCFCF"/>
<path d="M26 6C30.4183 6 34 9.58172 34 14V26C34 30.4183 30.4183 34 26 34H14C9.58172 34 6 30.4183 6 26V14C6 9.58172 9.58172 6 14 6H26Z" fill="#111111"/>
<path d="M29.9998 16.5L15.3682 22.73C14.1548 23.2433 13.1357 23.5008 12.3115 23.5008C11.3782 23.5008 10.7007 23.1742 10.2807 22.52C10.0165 22.1 9.93901 21.5675 10.0473 20.9217C10.1557 20.2758 10.444 19.5883 10.9107 18.8567C11.2998 18.265 11.9373 17.4875 12.8248 16.5233C12.5238 16.9972 12.3031 17.5175 12.1715 18.0633C11.9382 19.0592 12.1482 19.79 12.8015 20.2567C13.1123 20.4742 13.5398 20.5833 14.0848 20.5833C14.5198 20.5833 15.0098 20.5133 15.5548 20.3733L29.9998 16.5Z" fill="white"/>
</g>
<defs>
<clipPath id="clip0_819_3619">
<rect width="40" height="40" fill="white"/>
</clipPath>
</defs>
</svg>

<svg xmlns="http://www.w3.org/2000/svg" width="40" height="40" fill="none" viewBox="0 0 40 40"><g clip-path="url(#nkeon_svg-a)"><path fill="#CFCFCF" d="M20 0c11.046 0 20 8.954 20 20s-8.954 20-20 20S0 31.046 0 20 8.954 0 20 0"/><path fill="#111" d="M26 6a8 8 0 0 1 8 8v12a8 8 0 0 1-8 8H14a8 8 0 0 1-8-8V14a8 8 0 0 1 8-8z"/><path fill="#fff" d="m30 16.5-14.632 6.23q-1.82.77-3.056.77-1.401 0-2.031-.98-.396-.63-.234-1.598.163-.969.864-2.065.583-.888 1.914-2.334a5.1 5.1 0 0 0-.653 1.54q-.351 1.494.63 2.194.465.326 1.283.326.652 0 1.47-.21z"/></g><defs><clipPath id="nkeon_svg-a"><path fill="#fff" d="M0 0h40v40H0z"/></clipPath></defs></svg>
